X: 49
T: 49. Mit Fried' und Freud' fahr' ich dahin
N: Derived from chor049.krn
C: Johann Sebastian Bach
%%abc-version 2.0
%%abcx-abcm2ps-target-version 5.9.1 (29 Sep 2008)
%%abc-creator hum2abc beta
%%abcx-conversion-date 2019/03/11 17:28:17
%%abc-edited-by Craig Stuart Sapp
%%humdrum-veritas 2960127907
%%humdrum-veritas-data 4278799947
%%
%%barnumbers 0
L: 1/8
M: C
%%staves [1 2 3 4]
V: 1 clef=treble
V: 2 clef=treble
V: 3 clef=treble-8
V: 4 clef=bass
K: C
[V:1] D2 [I:setbarnb 1]| 
[V:2] A,2 | 
[V:3] FG | 
[V:4] D,E, | 
[V:1] A2A2G2d2 | 
[V:2] D2F2E2^F^G | 
[V:3] A2dcB2AB | 
[V:4] F,E, F,D, E,D, C,B,, | 
[V:1] c2B2!fermata!A2c2 | 
[V:2] A3^G!fermata!E2A2- | 
[V:3] cd/e/ =fe!fermata!c2e2 | 
[V:4] A,,C, D,E,!fermata!A,,2A,2 | 
[V:1] B2A2B4 | 
[V:2] A^GA2F2ED | 
[V:3] fe/d/ c/B/A- Ad/B/^G2 | 
[V:4] D,E, F,E, D,B,,E,2 | 
[V:1] !fermata!A6B2 | 
[V:2] !fermata!C6=G2 | 
[V:3] !fermata!A6d2 | 
[V:4] !fermata!A,,6=G,F, | 
[V:1] c2B2c2A2 | 
[V:2] G2G2G2F2 | 
[V:3] e2d2c3d | 
[V:4] E,F, G,F, E,C, F,D, | 
[V:1] GFE2!fermata!D2A2- | 
[V:2] ED^C2!fermata!A,2ED | 
[V:3] ^cd AG!fermata!F2A2 | 
[V:4] _B,G,A,2!fermata!D,2^C,B,, | 
[V:1] A2G2FED2 | 
[V:2] E^C DEA,2_B,2 | 
[V:3] GF- FEF4 | 
[V:4] ^C,A,,B,,C, D,=C,D,E, | 
[V:1] !fermata!C4A2F2 | 
[V:2] !fermata!A,4E2D2 | 
[V:3] !fermata!F4A2A2 | 
[V:4] !fermata!F,4^C,2D,2 | 
[V:1] c2A2GFG2 | 
[V:2] CG2F ED ^CD | 
[V:3] G2cd ef ed | 
[V:4] E,2F,2G,A,_B,2 | 
[V:1] !fermata!A2G2FED2 | 
[V:2] !fermata!E2E2D=C=B,2 | 
[V:3] !fermata!^c2A2AGF2 | 
[V:4] !fermata!A,2^C,2D,2^G,,2 | 
[V:1] C2F2ED2^C | 
[V:2] A,B, ^CD EFG2- | 
[V:3] E2A6 | 
[V:4] A,,3B,, ^C,D,A,,2 | 
[V:1] !fermata!D8 |]  
[V:2] G2^FE!fermata!F4 |]  
[V:3] _B2AG!fermata!A4 |]  
[V:4] !fermata!D,,8 |]  



